X: 440
T: Sepo
O: Armenia
F: http://www.youtube.com/watch?v=TmVQU6vl1u8
M: 2/4
L: 1/8
Q: 1/4=88
K: Dm
%%MIDI program 66
%%MIDI drum d2dd 54 54 54
%%MIDI drumon
|:E2 F/E/D            |E2 F/E/D |\
  ^C/D/E F/E/D/C/     |[1D4     :|\
  [2 D2-D/A,/=B,/^C/  |
|:D/E/F/E/ D/^C/=B,/C/|=B,>A,B,2|\
  D/E/F/E/ D/^C/=B,/C/|D4       :|


